X:88
T:Montezuma
S:American Veteran Fifer #88
C:J.L. Blatchley, Co.E. 2nd N.Y.Heavy Artillery
M:2/4
L:1/16
Q:1/4=90
K:D 
%%MIDI program 72
%%MIDI transpose 8
%%MIDI ratio 3 1
fg | afge fdec | dfed A2AG | FAdf gfed | cdec A2fg |
afge fdec | dfed A2AG | FAdf gedc | d2f2d2 ::
cd | eAAA eAeA | eAfA eAfa | gfed cBAG | BGDG B2AG |
FAdc BGed | cABc defg | afbg fedc | d2f2d2 :|


